svg/food/sugar_coated_haws_line.svg

<?xml version="1.0" encoding="UTF-8"?>
<svg width="24px" height="24px" viewBox="0 0 24 24" version="1.1" xmlns="http://www.w3.org/2000/svg" xmlns:xlink="http://www.w3.org/1999/xlink">
    <title>sugar_coated_haws_line</title>
    <g id="Icon" stroke="none" stroke-width="1" fill="none" fill-rule="evenodd">
        <g id="Food" transform="translate(-96.000000, -97.000000)">
            <g id="sugar_coated_haws_line" transform="translate(96.000000, 97.000000)">
                <path d="M24,0 L24,24 L0,24 L0,0 L24,0 Z M12.5935,23.2578 L12.5819,23.2595 L12.5109,23.295 L12.4919,23.2987 L12.4767,23.295 L12.4057,23.2595 C12.3958,23.2564 12.387,23.259 12.3821,23.2649 L12.378,23.2758 L12.3609,23.7031 L12.3659,23.7235 L12.3769,23.7357 L12.4805,23.8097 L12.4953,23.8136 L12.5071,23.8097 L12.6107,23.7357 L12.6233,23.7197 L12.6267,23.7031 L12.6096,23.2758 C12.6076,23.2657 12.601,23.2593 12.5935,23.2578 Z M12.8584,23.1453 L12.8445,23.1473 L12.6598,23.2397 L12.6499,23.2499 L12.6472,23.2611 L12.6651,23.6906 L12.6699,23.7034 L12.6784,23.7105 L12.8793,23.8032 C12.8914,23.8069 12.9022,23.803 12.9078,23.7952 L12.9118,23.7812 L12.8777,23.1665 C12.8753,23.1546 12.8674,23.147 12.8584,23.1453 Z M12.143,23.1473 C12.1332,23.1424 12.1222,23.1453 12.1156,23.1526 L12.1099,23.1665 L12.0758,23.7812 C12.0751,23.7927 12.0828,23.8019 12.0926,23.8046 L12.1083,23.8032 L12.3092,23.7105 L12.3186,23.7024 L12.3225,23.6906 L12.3404,23.2611 L12.3372,23.2485 L12.3278,23.2397 L12.143,23.1473 Z" id="MingCute" fill-rule="nonzero"></path>
                <path d="M9.87872,4.22187 C10.5473,4.89041 10.9299,5.7384 11.0261,6.61008 C11.8985,6.70611 12.7454,7.08858 13.4144,7.75751 C14.0833,8.42645 14.4654,9.2738 14.5616,10.1453 C15.434,10.2413 16.2809,10.6238 16.9498,11.2927 C18.2677,12.6106 18.4737,14.6195 17.5677,16.1534 L19.7782,18.364 C20.1688,18.7545 20.1688,19.3877 19.7782,19.7782 C19.3877,20.1687 18.7546,20.1687 18.364,19.7782 L16.1534,17.5676 C14.6195,18.4734 12.6108,18.2674 11.2929,16.9495 C10.6241,16.2807 10.2416,15.4339 10.1455,14.5616 C9.27398,14.4655 8.42652,14.0834 7.75751,13.4144 C7.08858,12.7454 6.70611,11.8985 6.61008,11.0261 C5.7384,10.9299 4.89041,10.5473 4.22187,9.87872 C2.65977,8.31662 2.65977,5.78396 4.22187,4.22187 C5.78396,2.65977 8.31662,2.65977 9.87872,4.22187 Z M12.7071,12.7069 C11.9261,13.4879 11.9261,14.7543 12.7071,15.5353 C13.4882,16.3164 14.7545,16.3164 15.5356,15.5353 C16.3166,14.7543 16.3166,13.4879 15.5356,12.7069 C14.7545,11.9258 13.4882,11.9258 12.7071,12.7069 Z M12.0002,9.17172 C11.2191,8.39068 9.95277,8.39068 9.17172,9.17172 C8.39068,9.95277 8.39068,11.2191 9.17172,12.0002 C9.52212,12.3505 9.96971,12.5441 10.429,12.5799 C10.6242,12.1119 10.9121,11.6734 11.2929,11.2927 C11.6736,10.912 12.112,10.624 12.5799,10.4289 C12.5441,9.96962 12.3505,9.52208 12.0002,9.17172 Z M8.46451,5.63608 C7.68346,4.85503 6.41713,4.85503 5.63608,5.63608 C4.85503,6.41713 4.85503,7.68346 5.63608,8.46451 C5.98713,8.81556 6.43438,9.00857 6.89385,9.04423 C7.08899,8.57642 7.37687,8.13815 7.75751,7.75751 C8.13815,7.37687 8.57642,7.08898 9.04423,6.89385 C9.00857,6.43438 8.81556,5.98713 8.46451,5.63608 Z" id="形状" fill="#09244B"></path>
            </g>
        </g>
    </g>
</svg>

<svg xmlns="http://www.w3.org/2000/svg" width="24" height="24"><g fill="none" fill-rule="evenodd"><path d="M24 0v24H0V0h24ZM12.594 23.258l-.012.002-.071.035-.02.004-.014-.004-.071-.036c-.01-.003-.019 0-.024.006l-.004.01-.017.428.005.02.01.013.104.074.015.004.012-.004.104-.074.012-.016.004-.017-.017-.427c-.002-.01-.009-.017-.016-.018Zm.264-.113-.014.002-.184.093-.01.01-.003.011.018.43.005.012.008.008.201.092c.012.004.023 0 .029-.008l.004-.014-.034-.614c-.003-.012-.01-.02-.02-.022Zm-.715.002a.023.023 0 0 0-.027.006l-.006.014-.034.614c0 .012.007.02.017.024l.015-.002.201-.093.01-.008.003-.011.018-.43-.003-.012-.01-.01-.184-.092Z"/><path fill="#09244B" d="M9.879 4.222a3.987 3.987 0 0 1 1.147 2.388c.873.096 1.72.479 2.388 1.148a3.985 3.985 0 0 1 1.148 2.387 4.002 4.002 0 0 1 3.006 6.008l2.21 2.211a1 1 0 1 1-1.414 1.414l-2.21-2.21a4.002 4.002 0 0 1-6.008-3.006 3.985 3.985 0 0 1-2.388-1.148 3.984 3.984 0 0 1-1.148-2.388A4 4 0 1 1 9.88 4.222Zm2.828 8.485a2 2 0 1 0 2.829 2.828 2 2 0 0 0-2.829-2.828ZM12 9.172a2 2 0 1 0-1.571 3.408c.195-.468.483-.907.864-1.287.38-.381.819-.669 1.287-.864A1.99 1.99 0 0 0 12 9.172ZM8.465 5.636a2 2 0 1 0-1.571 3.408c.195-.468.483-.906.864-1.286.38-.381.818-.669 1.286-.864a1.988 1.988 0 0 0-.58-1.258Z"/></g></svg>
